X: 10792
M: 6/8
L: 1/8
K: G
P: The Berwickshire Quick Step..
|:\
d3 (B2c) | (de)d (Bc)B | (de)d (Bc)B | (d3 g2)G |\
K: Gm
d2g g2e | d2b b2a | g2d d(Bc) | d3 (g2d) |\
d2g g2a | b2b bag | e2e ege | e2f (gf)e |
d2g g2e | d2b b2a2 | g2d d(Bc) | (d3 g2)a |\
("_>"b2g) ("_"g2d) | ("_>"d2B) ("_>"B2G) | A>BA ABc | e2f (gf)"^D.C."e |]


